Numix-Light-GalliumOS/16/status/radiotray_connecting.svg

<?xml version="1.0" encoding="UTF-8" standalone="no"?>
<svg
   xmlns:dc="http://purl.org/dc/elements/1.1/"
   xmlns:cc="http://creativecommons.org/ns#"
   xmlns:rdf="http://www.w3.org/1999/02/22-rdf-syntax-ns#"
   xmlns:svg="http://www.w3.org/2000/svg"
   xmlns="http://www.w3.org/2000/svg"
   xmlns:sodipodi="http://sodipodi.sourceforge.net/DTD/sodipodi-0.dtd"
   xmlns:inkscape="http://www.inkscape.org/namespaces/inkscape"
   width="16"
   viewBox="0 0 4.5155557 4.5155557"
   height="16"
   id="svg2"
   version="1.1"
   inkscape:version="0.91 r"
   sodipodi:docname="radiotray_connecting.svg">
  <metadata
     id="metadata12">
    <rdf:RDF>
      <cc:Work
         rdf:about="">
        <dc:format>image/svg+xml</dc:format>
        <dc:type
           rdf:resource="http://purl.org/dc/dcmitype/StillImage" />
        <dc:title />
      </cc:Work>
    </rdf:RDF>
  </metadata>
  <sodipodi:namedview
     pagecolor="#ffffff"
     bordercolor="#666666"
     borderopacity="1"
     objecttolerance="10"
     gridtolerance="10"
     guidetolerance="10"
     inkscape:pageopacity="0"
     inkscape:pageshadow="2"
     inkscape:window-width="1366"
     inkscape:window-height="747"
     id="namedview10"
     showgrid="true"
     inkscape:zoom="10.52"
     inkscape:cx="-17.663173"
     inkscape:cy="21.390275"
     inkscape:window-x="0"
     inkscape:window-y="21"
     inkscape:window-maximized="1"
     inkscape:current-layer="svg2">
    <inkscape:grid
       type="xygrid"
       id="grid3815" />
  </sodipodi:namedview>
  <defs
     id="defs4" />
  <g
     id="g4179"
     transform="matrix(0.28222222,0,0,0.28222222,-15.203921,-5.5857988)" />
  <path
     id="path4203"
     d="M 1.6048688,1.1319884 C 1.2449379,1.4700537 1.2433825,2.0220909 1.6033124,2.3600323 L 1.7743996,2.197756 C 1.5075306,1.9473372 1.5085675,1.5444355 1.7759559,1.2921572 m 0.9635314,-0.00199 c 0.2673884,0.2512866 0.2693325,0.6571635 0.00156,0.9089459 L 2.9121297,2.3604042 C 3.2720606,2.0219669 3.2706349,1.4679463 2.9110928,1.1288891 M 2.7394873,1.2901737"
     inkscape:connector-curvature="0"
     style="opacity:0.4;fill:#353535;fill-opacity:1;fill-rule:nonzero;stroke:none" />
  <path
     id="path4205"
     d="M 1.0972218,0.61826642 C 0.45676707,1.2395316 0.45474587,2.2501379 1.0943127,2.8706506 L 1.3987534,2.575258 C 0.92403367,2.1141696 0.92605497,1.3753745 1.40128,0.91378452 m 1.712806,-0.00251 C 3.5888058,1.3718608 3.5927217,2.1165512 3.116986,2.5781413 L 3.4214255,2.8735355 C 4.061378,2.2522704 4.0580937,1.2366466 3.4185255,0.61575782 l -0.304437,0.2958943 m 0,-5.017e-4"
     inkscape:connector-curvature="0"
     style="opacity:0.4;fill:#353535;fill-opacity:1;fill-rule:nonzero;stroke:none" />
  <path
     style="opacity:1;fill:#353535;fill-opacity:1;fill-rule:nonzero;stroke:none;stroke-width:2;stroke-linecap:square;stroke-linejoin:miter;stroke-miterlimit:4;stroke-dasharray:none;stroke-dashoffset:0;stroke-opacity:1"
     d="m 2.2577782,1.6420203 c 0.1563512,0 0.2822222,0.091543 0.2822222,0.2052526 l 0,1.8472727 c 0,0.1137099 -0.1258716,0.2052525 -0.2822222,0.2052525 -0.1563511,0 -0.2822222,-0.091543 -0.2822222,-0.2052525 l 0,-1.8472727 c 0,-0.11371 0.1258716,-0.2052526 0.2822222,-0.2052526 z"
     id="rect4286"
     inkscape:connector-curvature="0" />
</svg>

<svg xmlns="http://www.w3.org/2000/svg" width="16" viewBox="0 0 4.5155557 4.5155557" height="16">
 <path d="m 1.605 1.132 c -0.36 0.338 -0.361 0.89 -0.002 1.228 l 0.171 -0.162 c -0.267 -0.25 -0.266 -0.653 0.002 -0.906 m 0.964 -0.002 c 0.267 0.251 0.269 0.657 0.002 0.909 l 0.171 0.161 c 0.36 -0.338 0.359 -0.892 -0.001 -1.232 m -0.172 0.161" style="fill:#353535;opacity:0.4;fill-opacity:1;stroke:none;fill-rule:nonzero"/>
 <path d="m 1.097 0.618 c -0.64 0.621 -0.642 1.632 -0.003 2.252 l 0.304 -0.295 c -0.475 -0.461 -0.473 -1.2 0.003 -1.661 m 1.713 -0.003 c 0.475 0.461 0.479 1.205 0.003 1.667 l 0.304 0.295 c 0.64 -0.621 0.637 -1.637 -0.003 -2.258 l -0.304 0.296 m 0 -0.001" style="fill:#353535;opacity:0.4;fill-opacity:1;stroke:none;fill-rule:nonzero"/>
 <path d="m 2.258 1.642 c 0.156 0 0.282 0.092 0.282 0.205 l 0 1.847 c 0 0.114 -0.126 0.205 -0.282 0.205 -0.156 0 -0.282 -0.092 -0.282 -0.205 l 0 -1.847 c 0 -0.114 0.126 -0.205 0.282 -0.205 z" style="fill:#353535;opacity:1;fill-opacity:1;stroke:none;fill-rule:nonzero"/>
</svg>
